X: 20601
Q: "Andante"
M: 2/4
L: 1/16
K: D
V: 1 clef=treble
d2(e>f) (ge) za | d2(e>d) (dc) zA |\
a2(f>d') (c'b) zg | (g/f/)(b/a/) (a>c) d2 (d>c) |\
(cBA) g (g3f) | f2e^g a2bc' |
f2d'>c' c'ba^g | a2e>f g2a2 |\
d2f>a bd' zg | (g/f/b/a/) a>c d2 |]
V: 2 clef=treble
(e/d/)(g/f/) (e>G) F2F2 | (G2F) d (e3d) | d2cd c2BA | d2f>e edcB |
c2c>d e2f2 | Hg6 f>e | e2(e/d/f/d/) (dc) zG | F2d>f gb ze | (e/d/g/f/) e>G F2 |]


